X: 2576
T: Ballymore Lasses, The
R: jig
M: 6/8
K: Gmajor
B|:A2 F FAd|fed BAF|B2 G GFG|B^cd cdB|
A2 F FAd|fed ^cBA|B^cd ecA|1 dfe d^cB:|2 dfe d2 e||
f2 d f2 d|fga gfg||e2 c cBc|e2 f gfe|
f2 d f2 d|fga gfg|e^cA ABc|dfe d2 e|
f2 d d^cd|fga gfg|e2 c cBc|e2 f gfe|
fed ed^c|ded ^cBA|B^cd e^cA|dfe d3||

